wp-content/plugins/google-analytics-for-wordpress/lite/assets/vue/img/yir-time-spent-table-icon.svg

<svg width="51" height="41" viewBox="0 0 51 41" fill="none" xmlns="http://www.w3.org/2000/svg">
    <path d="M5.1 41C3.6975 41 2.49645 40.4977 1.49685 39.4932C0.497254 38.4887 -0.00169567 37.2827 4.32937e-06 35.875V5.125C4.32937e-06 3.71563 0.499804 2.50869 1.4994 1.50419C2.499 0.499691 3.6992 -0.00170398 5.1 4.3506e-06H45.9C47.3025 4.3506e-06 48.5035 0.502254 49.5031 1.50675C50.5027 2.51125 51.0017 3.71734 51 5.125V35.875C51 37.2844 50.5002 38.4913 49.5006 39.4958C48.501 40.5003 47.3008 41.0017 45.9 41H5.1ZM5.1 35.875H31.875V26.9062H5.1V35.875ZM36.975 35.875H45.9V12.8125H36.975V35.875ZM5.1 21.7812H31.875V12.8125H5.1V21.7812Z" fill="white"/>
</svg>

<svg width="51" height="41" fill="none" xmlns="http://www.w3.org/2000/svg"><path d="M5.1 41c-1.402 0-2.604-.502-3.603-1.507-1-1.004-1.499-2.21-1.497-3.618V5.125c0-1.41.5-2.616 1.5-3.62C2.498.5 3.7-.003 5.1 0h40.8c1.403 0 2.604.502 3.603 1.507 1 1.004 1.499 2.21 1.497 3.618v30.75c0 1.41-.5 2.616-1.5 3.62-.999 1.005-2.2 1.507-3.6 1.505H5.1zm0-5.125h26.775v-8.969H5.1v8.969zm31.875 0H45.9V12.812h-8.925v23.063zM5.1 21.781h26.775v-8.968H5.1v8.968z" fill="#fff"/></svg>
